;FLAVOR:Marlin
;TIME:16065
;Filament used: 6.65614m
;Layer height: 0.1
;MINX:64
;MINY:68
;MINZ:0.4
;MAXX:156
;MAXY:152
;MAXZ:15
;Generated with Cura_SteamEngine 4.8.0
M140 S70
M105
M190 S70
M104 S240
M105
M109 S240
M82 ;absolute extrusion mode
; Ender 3 Custom Start G-code
G92 E0 ; Reset Extruder
G28 ; Home all axes

M420 S1 Z2 ;Enable ABL using saved Mesh and Fade Height

G1 Z2.0 F3000 ; Move Z Axis up little to prevent scratching of Heat Bed
G1 X0.1 Y20 Z0.3 F5000.0 ; Move to start position
G1 X0.1 Y200.0 Z0.3 F1500.0 E15 ; Draw the first line
G1 X0.4 Y200.0 Z0.3 F5000.0 ; Move to side a little
G1 X0.4 Y20 Z0.3 F1500.0 E30 ; Draw the second line
G92 E0 ; Reset Extruder
G1 Z2.0 F3000 ; Move Z Axis up little to prevent scratching of Heat Bed
G1 X5 Y20 Z0.3 F5000.0 ; Move over to prevent blob squish
G92 E0
G92 E0
G1 F2400 E-3
;LAYER_COUNT:147
;LAYER:0
M107
G0 F6000 X67.198 Y71.264 Z0.4
;TYPE:SKIRT
G1 F2400 E0
G1 F1200 X67.886 Y70.627 E0.06237
G1 X68.626 Y70.051 E0.12475
G1 X69.412 Y69.539 E0.18715
G1 X70.239 Y69.097 E0.24953
G1 X71.101 Y68.727 E0.31192
G1 X71.991 Y68.431 E0.37432
G1 X72.903 Y68.213 E0.43669
G1 X73.83 Y68.072 E0.49907
G1 X74.701 Y68.013 E0.55714
G1 X75.022 Y68.004 E0.5785
G1 X75.33 Y68 E0.59899
G1 X144.293 Y68 E5.18643
G1 X145.149 Y68.011 E5.24337
G1 X146.085 Y68.065 E5.30574
G1 X147.013 Y68.197 E5.36809
G1 X147.927 Y68.409 E5.4305
G1 X148.819 Y68.698 E5.49288
G1 X149.684 Y69.061 E5.55528
G1 X150.514 Y69.497 E5.61764
G1 X151.305 Y70.002 E5.68007
G1 X152.049 Y70.573 E5.74246
G1 X152.742 Y71.205 E5.80485
G1 X153.379 Y71.893 E5.86722
G1 X153.954 Y72.634 E5.92961
G1 X154.465 Y73.42 E5.99197
G1 X154.907 Y74.248 E6.05441
G1 X155.276 Y75.11 E6.11678
G1 X155.571 Y76 E6.17915
G1 X155.789 Y76.912 E6.24153
G1 X155.929 Y77.84 E6.30396
G1 X155.987 Y78.701 E6.36136
G1 X155.996 Y79.021 E6.38265
G1 X156 Y79.33 E6.40321
G1 X155.999 Y140.4 E10.4656
G1 X155.99 Y141.127 E10.51397
G1 X155.939 Y142.064 E10.57639
G1 X155.807 Y142.992 E10.63874
G1 X155.598 Y143.906 E10.70111
G1 X155.311 Y144.799 E10.76351
G1 X154.949 Y145.665 E10.82594
G1 X154.515 Y146.496 E10.88831
G1 X154.011 Y147.287 E10.9507
G1 X153.442 Y148.032 E11.01306
G1 X152.811 Y148.727 E11.0755
G1 X152.124 Y149.365 E11.13787
G1 X151.385 Y149.942 E11.20023
G1 X150.599 Y150.454 E11.26263
G1 X149.773 Y150.897 E11.32498
G1 X148.911 Y151.269 E11.38743
G1 X148.022 Y151.565 E11.44976
G1 X147.11 Y151.785 E11.51217
G1 X146.183 Y151.926 E11.57454
G1 X145.299 Y151.987 E11.63349
G1 X144.978 Y151.996 E11.65485
G1 X144.67 Y152 E11.67534
G1 X75.565 Y151.999 E16.27222
G1 X74.867 Y151.99 E16.31866
G1 X73.931 Y151.938 E16.38101
G1 X73.002 Y151.806 E16.44343
G1 X72.088 Y151.596 E16.50582
G1 X71.195 Y151.309 E16.56821
G1 X70.33 Y150.946 E16.63061
G1 X69.499 Y150.512 E16.69298
G1 X68.708 Y150.008 E16.75537
G1 X67.963 Y149.438 E16.81777
G1 X67.269 Y148.807 E16.88016
G1 X66.632 Y148.12 E16.94248
G1 X66.055 Y147.38 E17.0049
G1 X65.543 Y146.594 E17.0673
G1 X65.1 Y145.767 E17.12971
G1 X64.729 Y144.906 E17.19207
G1 X64.433 Y144.016 E17.25447
G1 X64.214 Y143.104 E17.31686
G1 X64.073 Y142.177 E17.37923
G1 X64.013 Y141.288 E17.4385
G1 X64.004 Y140.955 E17.46066
G1 X64 Y140.658 E17.48042
G1 X64.001 Y79.525 E21.547
G1 X64.01 Y78.86 E21.59124
G1 X64.063 Y77.924 E21.6536
G1 X64.195 Y76.995 E21.71602
G1 X64.406 Y76.081 E21.77842
G1 X64.694 Y75.189 E21.84077
G1 X65.057 Y74.324 E21.90317
G1 X65.492 Y73.493 E21.96557
G1 X65.996 Y72.703 E22.0279
G1 X66.566 Y71.958 E22.0903
G1 X67.198 Y71.264 E22.15274
G0 F6000 X67.589 Y71.439
G1 F1200 X68.274 Y70.823 E22.21402
G1 X69.01 Y70.27 E22.27526
G1 X69.791 Y69.782 E22.33652
G1 X70.611 Y69.364 E22.39775
G1 X71.465 Y69.019 E22.45902
G1 X72.345 Y68.749 E22.52025
G1 X73.245 Y68.557 E22.58146
G1 X74.159 Y68.443 E22.64273
G1 X74.712 Y68.413 E22.67957
G1 X75.033 Y68.404 E22.70093
G1 X75.33 Y68.4 E22.72069
G1 X144.293 Y68.4 E27.30813
G1 X145.143 Y68.411 E27.36468
G1 X146.062 Y68.464 E27.42591
G1 X146.973 Y68.597 E27.48715
G1 X147.869 Y68.808 E27.54838
G1 X148.743 Y69.096 E27.6096
G1 X149.59 Y69.459 E27.6709
G1 X150.401 Y69.894 E27.73212
G1 X151.171 Y70.398 E27.79333
G1 X151.895 Y70.967 E27.85459
G1 X152.567 Y71.597 E27.91586
G1 X153.182 Y72.282 E27.9771
G1 X153.735 Y73.018 E28.03834
G1 X154.222 Y73.799 E28.09956
G1 X154.639 Y74.62 E28.16082
G1 X154.984 Y75.474 E28.22208
G1 X155.253 Y76.354 E28.2833
G1 X155.445 Y77.255 E28.34458
G1 X155.558 Y78.168 E28.40577
G1 X155.587 Y78.712 E28.44201
G1 X155.596 Y79.032 E28.46331
G1 X155.6 Y79.33 E28.48313
G1 X155.599 Y140.395 E32.54519
G1 X155.59 Y141.122 E32.59356
G1 X155.539 Y142.041 E32.65478
G1 X155.408 Y142.953 E32.71607
G1 X155.198 Y143.849 E32.77729
G1 X154.912 Y144.724 E32.83852
G1 X154.551 Y145.571 E32.89977
G1 X154.117 Y146.383 E32.96102
G1 X153.615 Y147.155 E33.02227
G1 X153.047 Y147.88 E33.08354
G1 X152.419 Y148.553 E33.14477
G1 X151.735 Y149.169 E33.206
G1 X151 Y149.723 E33.26723
G1 X150.22 Y150.212 E33.32847
G1 X149.4 Y150.631 E33.38972
G1 X148.547 Y150.977 E33.45095
G1 X147.667 Y151.248 E33.5122
G1 X146.767 Y151.441 E33.57343
G1 X145.853 Y151.556 E33.63471
G1 X145.288 Y151.587 E33.67235
G1 X144.967 Y151.596 E33.69371
G1 X144.67 Y151.6 E33.71347
G1 X75.57 Y151.599 E38.31002
G1 X74.872 Y151.59 E38.35646
G1 X73.953 Y151.538 E38.41769
G1 X73.042 Y151.407 E38.47891
G1 X72.146 Y151.197 E38.54013
G1 X71.271 Y150.91 E38.60138
G1 X70.424 Y150.548 E38.66266
G1 X69.612 Y150.114 E38.7239
G1 X68.841 Y149.612 E38.7851
G1 X68.116 Y149.044 E38.84637
G1 X67.443 Y148.415 E38.90765
G1 X66.828 Y147.731 E38.96883
G1 X66.274 Y146.996 E39.03006
G1 X65.786 Y146.215 E39.09132
G1 X65.367 Y145.395 E39.15257
G1 X65.021 Y144.542 E39.21381
G1 X64.751 Y143.662 E39.27504
G1 X64.558 Y142.761 E39.33633
G1 X64.444 Y141.848 E39.39754
G1 X64.413 Y141.277 E39.43557
G1 X64.404 Y140.944 E39.45773
G1 X64.4 Y140.658 E39.47676
G1 X64.401 Y79.531 E43.54294
G1 X64.41 Y78.866 E43.58718
G1 X64.462 Y77.946 E43.64848
G1 X64.594 Y77.035 E43.70971
G1 X64.805 Y76.139 E43.77095
G1 X65.092 Y75.264 E43.8322
G1 X65.455 Y74.418 E43.89344
G1 X65.889 Y73.606 E43.95469
G1 X66.392 Y72.835 E44.01592
G1 X66.961 Y72.111 E44.07718
G1 X67.589 Y71.439 E44.13836
G0 F6000 X67.981 Y71.617
G1 F1200 X68.662 Y71.024 E44.19843
G1 X69.394 Y70.494 E44.25854
G1 X70.169 Y70.031 E44.3186
G1 X70.982 Y69.638 E44.37866
G1 X71.827 Y69.318 E44.43877
G1 X72.696 Y69.075 E44.49879
G1 X73.584 Y68.909 E44.55889
G1 X74.723 Y68.813 E44.63492
G1 X75.044 Y68.804 E44.65628
G1 X75.33 Y68.8 E44.67531
G1 X144.293 Y68.8 E49.26275
G1 X145.137 Y68.811 E49.3189
G1 X146.039 Y68.864 E49.379
G1 X146.932 Y68.996 E49.43905
G1 X147.81 Y69.207 E49.49912
G1 X148.666 Y69.495 E49.55919
G1 X149.493 Y69.857 E49.61925
G1 X150.285 Y70.292 E49.67935
G1 X151.036 Y70.794 E49.73944
G1 X151.739 Y71.361 E49.79952
G1 X152.389 Y71.988 E49.8596
G1 X152.981 Y72.67 E49.91967
G1 X153.511 Y73.401 E49.97973
G1 X153.973 Y74.177 E50.03981
G1 X154.366 Y74.99 E50.09988
G1 X154.684 Y75.835 E50.15994
G1 X154.927 Y76.705 E50.22002
G1 X155.092 Y77.593 E50.2801
G1 X155.187 Y78.723 E50.35554
G1 X155.196 Y79.043 E50.37683
G1 X155.2 Y79.33 E50.39593
G1 X155.199 Y140.39 E54.45765
G1 X155.19 Y141.117 E54.50602
G1 X155.139 Y142.019 E54.56611
G1 X155.008 Y142.913 E54.62622
G1 X154.799 Y143.791 E54.68626
G1 X154.513 Y144.648 E54.74635
G1 X154.152 Y145.476 E54.80644
G1 X153.72 Y146.268 E54.86645
G1 X153.219 Y147.02 E54.92656
G1 X152.653 Y147.724 E54.98665
G1 X152.028 Y148.375 E55.04668
G1 X151.347 Y148.969 E55.10679
G1 X150.616 Y149.5 E55.16689
G1 X149.842 Y149.964 E55.22692
G1 X149.029 Y150.358 E55.28702
G1 X148.185 Y150.678 E55.34706
G1 X147.315 Y150.923 E55.40719
G1 X146.428 Y151.089 E55.46721
G1 X145.277 Y151.187 E55.54406
G1 X144.956 Y151.196 E55.56542
G1 X144.67 Y151.2 E55.58444
G1 X75.575 Y151.199 E60.18066
G1 X74.877 Y151.19 E60.2271
G1 X73.976 Y151.139 E60.28713
G1 X73.082 Y151.007 E60.34724
G1 X72.204 Y150.798 E60.40728
G1 X71.347 Y150.511 E60.4674
G1 X70.52 Y150.15 E60.52742
G1 X69.727 Y149.717 E60.58753
G1 X68.976 Y149.216 E60.64758
G1 X68.272 Y148.65 E60.70767
G1 X67.621 Y148.024 E60.76774
G1 X67.028 Y147.343 E60.82781
G1 X66.498 Y146.612 E60.88787
G1 X66.034 Y145.837 E60.94796
G1 X65.64 Y145.024 E61.00806
G1 X65.32 Y144.18 E61.0681
G1 X65.076 Y143.31 E61.12821
G1 X64.91 Y142.422 E61.1883
G1 X64.813 Y141.267 E61.2654
G1 X64.804 Y140.934 E61.28756
G1 X64.8 Y140.658 E61.30592
G1 X64.801 Y79.536 E65.37177
G1 X64.81 Y78.871 E65.41601
G1 X64.862 Y77.969 E65.47612
G1 X64.994 Y77.076 E65.53616
G1 X65.204 Y76.198 E65.59622
G1 X65.491 Y75.341 E65.65634
G1 X65.853 Y74.514 E65.71639
G1 X66.286 Y73.722 E65.77643
G1 X66.788 Y72.971 E65.83652
G1 X67.355 Y72.267 E65.89665
G1 X67.981 Y71.617 E65.95668
G1 F2400 E62.95668
;MESH:pil kutusu.stl
G0 F6000 X75.42 Y78.335
G0 X75.42 Y79.42
G0 X144.218 Y79.782
G0 X144.4 Y140.4
;TYPE:WALL-INNER
G1 F2400 E65.95668
G1 F1200 X75.6 Y140.4 E70.53327
G1 X75.6 Y79.6 E74.57771
G1 X144.4 Y79.6 E79.1543
G1 X144.4 Y140.4 E83.19873
G0 F6000 X144.8 Y140.8
;TYPE:WALL-OUTER
G1 F1200 X75.2 Y140.8 E87.82855
G1 X75.2 Y79.2 E91.92619
G1 X144.8 Y79.2 E96.556
G1 X144.8 Y140.8 E100.65365
G0 F6000 X144.53 Y140.53
G0 X144.29 Y140.01
G0 X144.01 Y140.01
;TYPE:SKIN
G1 F1200 X75.99 Y140.01 E105.17836
G1 X75.99 Y79.99 E109.17091
G1 X144.01 Y79.99 E113.69562
G1 X144.01 Y140.01 E117.68816
G1 F2400 E114.68816
G0 F6000 X144.29 Y140.01
G0 X144.29 Y80.492
G0 X143.849 Y80.492
G1 F2400 E117.68816
G1 F1200 X143.506 Y80.149 E117.72043
G0 F6000 X142.94 Y80.149
G1 F1200 X143.849 Y81.058 E117.80594
G0 F6000 X143.849 Y81.624
G1 F1200 X142.375 Y80.149 E117.94466
G0 F6000 X141.809 Y80.149
G1 F1200 X143.849 Y82.189 E118.13657
G0 F6000 X143.849 Y82.755
G1 F1200 X141.243 Y80.149 E118.38172
G0 F6000 X140.678 Y80.149
G1 F1200 X143.849 Y83.321 E118.68008
G0 F6000 X143.849 Y83.886
G1 F1200 X140.112 Y80.149 E119.03163
G0 F6000 X139.546 Y80.149
G1 F1200 X143.849 Y84.452 E119.43643
G0 F6000 X143.849 Y85.018
G1 F1200 X138.981 Y80.149 E119.89443
G0 F6000 X138.415 Y80.149
G1 F1200 X143.849 Y85.583 E120.40563
G0 F6000 X143.849 Y86.149
G1 F1200 X137.849 Y80.149 E120.97007
G0 F6000 X137.284 Y80.149
G1 F1200 X143.849 Y86.715 E121.58771
G0 F6000 X143.849 Y87.281
G1 F1200 X136.718 Y80.149 E122.2586
G0 F6000 X136.152 Y80.149
G1 F1200 X143.849 Y87.846 E122.98269
G0 F6000 X143.849 Y88.412
G1 F1200 X135.587 Y80.149 E123.75997
G0 F6000 X135.021 Y80.149
G1 F1200 X143.849 Y88.978 E124.5905
G0 F6000 X143.849 Y89.543
G1 F1200 X134.455 Y80.149 E125.47423
G0 F6000 X133.889 Y80.149
G1 F1200 X143.849 Y90.109 E126.41121
G0 F6000 X143.849 Y90.675
G1 F1200 X133.324 Y80.149 E127.40138
G0 F6000 X132.758 Y80.149
G1 F1200 X143.849 Y91.24 E128.44476
G0 F6000 X143.849 Y91.806
G1 F1200 X132.192 Y80.149 E129.54138
G0 F6000 X131.627 Y80.149
G1 F1200 X143.849 Y92.372 E130.6912
G0 F6000 X143.849 Y92.937
G1 F1200 X131.061 Y80.149 E131.89421
G0 F6000 X130.495 Y80.149
G1 F1200 X143.849 Y93.503 E133.15047
G0 F6000 X143.849 Y94.069
G1 F1200 X129.93 Y80.149 E134.45994
G0 F6000 X129.364 Y80.149
G1 F1200 X143.849 Y94.634 E135.8226
G0 F6000 X143.849 Y95.2
G1 F1200 X128.798 Y80.149 E137.2385
G0 F6000 X128.233 Y80.149
G1 F1200 X143.849 Y95.766 E138.70761
G0 F6000 X143.849 Y96.331
G1 F1200 X127.667 Y80.149 E140.22991
G0 F6000 X127.101 Y80.149
G1 F1200 X143.849 Y96.897 E141.80546
G0 F6000 X143.849 Y97.463
G1 F1200 X126.536 Y80.149 E143.43421
G0 F6000 X125.97 Y80.149
G1 F1200 X143.849 Y98.029 E145.1162
G0 F6000 X143.849 Y98.594
G1 F1200 X125.404 Y80.149 E146.85139
G0 F6000 X124.838 Y80.149
G1 F1200 X143.849 Y99.16 E148.63983
G0 F6000 X143.849 Y99.726
G1 F1200 X124.273 Y80.149 E150.48147
G0 F6000 X123.707 Y80.149
G1 F1200 X143.849 Y100.291 E152.3763
G0 F6000 X143.849 Y100.857
G1 F1200 X123.141 Y80.149 E154.32439
G0 F6000 X122.576 Y80.149
G1 F1200 X143.849 Y101.423 E156.32567
G0 F6000 X143.849 Y101.988
G1 F1200 X122.01 Y80.149 E158.38014
G0 F6000 X121.444 Y80.149
G1 F1200 X143.849 Y102.554 E160.48787
G0 F6000 X143.849 Y103.12
G1 F1200 X120.879 Y80.149 E162.64879
G0 F6000 X120.313 Y80.149
G1 F1200 X143.849 Y103.685 E164.86292
G0 F6000 X143.849 Y104.251
G1 F1200 X119.747 Y80.149 E167.13028
G0 F6000 X119.182 Y80.149
G1 F1200 X143.849 Y104.817 E169.45085
G0 F6000 X143.849 Y105.382
G1 F1200 X118.616 Y80.149 E171.82462
G0 F6000 X118.05 Y80.149
G1 F1200 X143.849 Y105.948 E174.25163
G0 F6000 X143.849 Y106.514
G1 F1200 X117.485 Y80.149 E176.73184
G0 F6000 X116.919 Y80.149
G1 F1200 X143.849 Y107.08 E179.2653
G0 F6000 X143.849 Y107.645
G1 F1200 X116.353 Y80.149 E181.85195
G0 F6000 X115.788 Y80.149
G1 F1200 X143.849 Y108.211 E184.49181
G0 F6000 X143.849 Y108.777
G1 F1200 X115.222 Y80.149 E187.1849
G0 F6000 X114.656 Y80.149
G1 F1200 X143.849 Y109.342 E189.9312
G0 F6000 X143.849 Y109.908
G1 F1200 X114.09 Y80.149 E192.73075
G0 F6000 X113.525 Y80.149
G1 F1200 X143.849 Y110.474 E195.58349
G0 F6000 X143.849 Y111.039
G1 F1200 X112.959 Y80.149 E198.48943
G0 F6000 X112.393 Y80.149
G1 F1200 X143.849 Y111.605 E201.44862
G0 F6000 X143.849 Y112.171
G1 F1200 X111.828 Y80.149 E204.46101
G0 F6000 X111.262 Y80.149
G1 F1200 X143.849 Y112.736 E207.52659
G0 F6000 X143.849 Y113.302
G1 F1200 X110.696 Y80.149 E210.64542
G0 F6000 X110.131 Y80.149
G1 F1200 X143.849 Y113.868 E213.81745
G0 F6000 X143.849 Y114.433
G1 F1200 X109.565 Y80.149 E217.04268
G0 F6000 X108.999 Y80.149
G1 F1200 X143.849 Y114.999 E220.32115
G0 F6000 X143.849 Y115.565
G1 F1200 X108.434 Y80.149 E223.65283
G0 F6000 X107.868 Y80.149
G1 F1200 X143.849 Y116.13 E227.0377
G0 F6000 X143.849 Y116.696
G1 F1200 X107.302 Y80.149 E230.47582
G0 F6000 X106.737 Y80.149
G1 F1200 X143.849 Y117.262 E233.96713
G0 F6000 X143.849 Y117.828
G1 F1200 X106.171 Y80.149 E237.5117
G0 F6000 X105.605 Y80.149
G1 F1200 X143.849 Y118.393 E241.10946
G0 F6000 X143.849 Y118.959
G1 F1200 X105.04 Y80.149 E244.76042
G0 F6000 X104.474 Y80.149
G1 F1200 X143.849 Y119.525 E248.46462
G0 F6000 X143.849 Y120.09
G1 F1200 X103.908 Y80.149 E252.22203
G0 F6000 X103.342 Y80.149
G1 F1200 X143.849 Y120.656 E256.03268
G0 F6000 X143.849 Y121.222
G1 F1200 X102.777 Y80.149 E259.89653
G0 F6000 X102.211 Y80.149
G1 F1200 X143.849 Y121.787 E263.81357
G0 F6000 X143.849 Y122.353
G1 F1200 X101.645 Y80.149 E267.78387
G0 F6000 X101.08 Y80.149
G1 F1200 X143.849 Y122.919 E271.80736
G0 F6000 X143.849 Y123.484
G1 F1200 X100.514 Y80.149 E275.88405
G0 F6000 X99.948 Y80.149
G1 F1200 X143.849 Y124.05 E280.01399
G0 F6000 X143.849 Y124.616
G1 F1200 X99.383 Y80.149 E284.19712
G0 F6000 X98.817 Y80.149
G1 F1200 X143.849 Y125.181 E288.43346
G0 F6000 X143.849 Y125.747
G1 F1200 X98.251 Y80.149 E292.72304
G0 F6000 X97.686 Y80.149
G1 F1200 X143.849 Y126.313 E297.06582
G0 F6000 X143.849 Y126.878
G1 F1200 X97.12 Y80.149 E301.46179
G0 F6000 X96.554 Y80.149
G1 F1200 X143.849 Y127.444 E305.91102
G0 F6000 X143.849 Y128.01
G1 F1200 X95.989 Y80.149 E310.41344
G0 F6000 X95.423 Y80.149
G1 F1200 X143.849 Y128.576 E314.96911
G0 F6000 X143.849 Y129.141
G1 F1200 X94.857 Y80.149 E319.57798
G0 F6000 X94.291 Y80.149
G1 F1200 X143.849 Y129.707 E324.24009
G0 F6000 X143.849 Y130.273
G1 F1200 X93.726 Y80.149 E328.9554
G0 F6000 X93.16 Y80.149
G1 F1200 X143.849 Y130.838 E333.72391
G0 F6000 X143.849 Y131.404
G1 F1200 X92.594 Y80.149 E338.54567
G0 F6000 X92.029 Y80.149
G1 F1200 X143.849 Y131.97 E343.42062
G0 F6000 X143.849 Y132.535
G1 F1200 X91.463 Y80.149 E348.34877
G0 F6000 X90.897 Y80.149
G1 F1200 X143.849 Y133.101 E353.33017
G0 F6000 X143.849 Y133.667
G1 F1200 X90.332 Y80.149 E358.36477
G0 F6000 X89.766 Y80.149
G1 F1200 X143.849 Y134.232 E363.45257
G0 F6000 X143.849 Y134.798
G1 F1200 X89.2 Y80.149 E368.59361
G0 F6000 X88.635 Y80.149
